X: 1
T: Rambler, The
M: 6/8
L: 1/8
R: jig
K: Amaj
|: EFE E2 A|FEC E2 e|fec ABc|dcd BAF|
|EFE E2 A|FEC E2 e|fec ABc|1 BcB A2 F :|2 BcB Acd||
|: ecB Ace|aff faf|ece fec|cBA Bcd|
|ecB Ace|aff faf|ece fec|1 BcB Aee:|2 BcB (3ABA F||
